packages/nimble-tokens/assets-icons/IntermediateSelection_16x16.svg

<?xml version="1.0" encoding="iso-8859-1"?>
<!-- Generator: Adobe Illustrator 22.1.0, SVG Export Plug-In . SVG Version: 6.00 Build 0)  -->
<svg version="1.1" id="Layer_1" xmlns="http://www.w3.org/2000/svg" xmlns:xlink="http://www.w3.org/1999/xlink" x="0px" y="0px"
	 viewBox="0 0 16 16" style="enable-background:new 0 0 16 16;" xml:space="preserve">
<path style="opacity:0.7;" d="M13,2c0.551,0,1,0.449,1,1v10c0,0.551-0.449,1-1,1H3c-0.551,0-1-0.449-1-1V3c0-0.551,0.449-1,1-1H13
	 M13,1H3C1.895,1,1,1.895,1,3v10c0,1.105,0.895,2,2,2h10c1.105,0,2-0.895,2-2V3C15,1.895,14.105,1,13,1L13,1z M3,3v10h10V3H3z
	 M11,11H5V5h6V11z"/>
</svg>

<svg id="Layer_1" data-name="Layer 1" xmlns="http://www.w3.org/2000/svg" viewBox="0 0 16 16"><path d="M13,2a1.00115,1.00115,0,0,1,1,1V13a1.00115,1.00115,0,0,1-1,1H3a1.00115,1.00115,0,0,1-1-1V3A1.00115,1.00115,0,0,1,3,2H13m0-1H3A2,2,0,0,0,1,3V13a2,2,0,0,0,2,2H13a2,2,0,0,0,2-2V3a2,2,0,0,0-2-2ZM3,3V13H13V3Zm8,8H5V5h6Z" opacity="0.7"/></svg>
